icons/icon-heart.svg

<svg viewBox="0 0 40 40" fill="none" xmlns="http://www.w3.org/2000/svg">
<g id="icon">
<path id="Vector 174" d="M5.18605 15.2001L5.11245 14.4934C4.73946 10.9128 7.25398 7.67415 10.8153 7.14817V7.14817C12.8715 6.84449 14.9525 7.5092 16.4519 8.94861L20.3712 12.7112L23.844 9.16898C25.3841 7.59809 27.5863 6.86476 29.7607 7.19875V7.19875C33.0949 7.71087 35.5564 10.5931 35.5564 13.9663V13.9663C35.5564 15.6714 34.9211 17.3215 33.7744 18.5834L20.3712 33.3334L16.2972 29.4223" stroke="currentColor" stroke-opacity="0.3" stroke-width="2.5"/>
<path id="Vector 175" d="M17.9985 23.7362L11.2969 31.1112L4.57517 23.529C4.12838 23.025 3.84305 22.3986 3.75609 21.7307L3.72735 21.51C3.50827 19.8274 4.66684 18.2757 6.34228 18.0076C7.25314 17.8619 8.18197 18.1245 8.88172 18.7255L11.2969 20.8001L13.0333 19.029C13.8034 18.2435 14.9045 17.8768 15.9917 18.0438C17.6588 18.2999 18.8895 19.741 18.8895 21.4276C18.8895 22.2802 18.5719 23.1052 17.9985 23.7362Z" stroke="currentColor" stroke-opacity="0.3" stroke-width="2.5"/>
</g>
</svg>

<svg xmlns="http://www.w3.org/2000/svg" fill="none" viewBox="0 0 40 40"><g stroke="currentColor" stroke-opacity=".3" stroke-width="2.5"><path d="m5.186 15.2-.074-.707a6.721 6.721 0 0 1 11.34-5.545l3.92 3.763 3.472-3.542a6.833 6.833 0 0 1 5.917-1.97 6.847 6.847 0 0 1 5.795 6.767 6.872 6.872 0 0 1-1.782 4.617l-13.403 14.75-4.074-3.91"/><path d="m17.998 23.736-6.701 7.375-6.722-7.582a3.366 3.366 0 0 1-.819-1.798l-.029-.221a3.137 3.137 0 0 1 5.155-2.785l2.415 2.075 1.736-1.771a3.417 3.417 0 0 1 5.857 2.399c0 .852-.318 1.677-.892 2.308Z"/></g></svg>
